!!!OTL@@DE: Der Schweizerbu
!!!COM: Neueres Volkslied
!!!ODT: 1822
!!!OMD: Gem&auml;ssigt
!!!OCL: Erk, Ludwig
!!!GCO: Deutscher Liederschatz, Band 1
**kern	**kern	**kern
*staff3	*staff2	*staff1
*Ipiano	*Ipiano	*Ivox
*>[A,A,B,B]	*>[A,A,B,B]	*>[A,A,B,B]
*>norep[A,B]	*>norep[A,B]	*>norep[A,B]
*>A	*>A	*>A
*clefF4	*clefG2	*clefG2
*k[]	*k[]	*k[]
*C:	*C:	*C:
*M2/4	*M2/4	*M2/4
*MM82	*MM82	*MM82
8r	(16.c/ 16.e/LL	16.e/
.	32d/ 32f/JJk	32f/
=1	=1	=1
*^	*	*
8G/	4C\	8e/) 8g/L	8g/
4G/	.	8c'/ 8e'/	16.g/
.	.	.	32a/
.	8BB\L	8d'/ 8f'/	16g/
.	.	.	16g/
8G/	8GG\J	8B'/ 8d'/ 8f'/J	16.g/
.	.	.	32a/
=2	=2	=2	=2
8G/	4.C\	8c'/ 8e'/L	8g/
4G/	.	(16.g/ 16.ee/L	16.ee\LL
.	.	32f/ 32dd/JJk	32dd\JJk
.	.	8e/) 8cc/L	8cc\
8G/	8C\	8e'/ 8g'/J	16.e/
.	.	.	32g/
*v	*v	*	*
=3	=3	=3
8GG/ 8G/	8d'/ 8f'/L	8f/
4G\ 4B\	(16.a/ 16.ff/L	16.ff\LL
.	32g/ 32ee/JJk	32ee\JJk
.	8f/) 8dd/L	8dd\
8G\ 8B\	(16.g/ 16.ee/L	16.ee\LL
.	32f/ 32dd/JJk	32dd\JJk
=4	=4	=4
4C\ 4G\ 4c\	4e/) 4cc/	4cc\
8r	8r	8r
=:|!|:	=:|!|:	=:|!|:
*>B	*>B	*>B
8C\ [8G\	16c/ (16e/LL	16e/LL
.	16e/ 16g/JJ	16g/JJ
=5	=5	=5
8GG/ 8G/]	&(8d/&) 8f/L)	8f/
*^	*	*
4G\	16.B/LL	(16.f/ 16.dd/L	16.dd\LL
.	32c/Jk	32e/ 32cc/JJk	32cc\JJk
.	&(8d/J&)	8f/) 8b/L	8b\
8ryy	8GG/ [8G/	(16B/ 16d/L	16d/LL
.	.	16d/ 16f/JJ	16f/JJ
*v	*v	*	*
=6	=6	=6
8C\ 8G\]	8c/) 8e/L	8e/
4C\ 4c\	(16.g/ 16.ee/L	16.ee\LL
.	32f/ 32dd/JJk	32dd\JJk
.	8e/) 8cc/L	8cc/
8C\ [8G\	(16c/ 16e/L	16e/LL
.	16e/ 16g/JJ	16g/JJ
=7	=7	=7
8GG/ 8G/]	8d/) 8f/L	16f/
.	.	16f/
*^	*	*
4G\	16.B/LL	(16.f/ 16.dd/L	16.dd\
.	32c/Jk	32e/ 32cc/JJk	32cc\
.	&(8d/J&)	8f/) 8b/L	8b\
8ryy	8GG/ [8G/	(16B/ 16d/L	16d/LL
.	.	16d/ 16f/JJ	16f/JJ
*v	*v	*	*
=8	=8	=8
8C\ 8G\]	16c/) 16e/LL	(16e/LL
.	16e/ 16g/JJ	16g/JJ
4C\ 4c\	(16.g/ 16.ee/LL	16.ee\LL)
.	32f/ 32dd/JJk	32dd\JJk
.	8e/) 8cc/	8cc/
8C\ 8G\	(16.c/ 16.e/LL	16.e/
.	32d/ 32f/JJk	32f/
=9	=9	=9
*^	*	*
8G/	4C\	8e/) 8g/L	8g/
4G/	.	8c'/ 8e'/	16.g/
.	.	.	32a/
.	8BB\L	8d'/ 8f'/	16g/
.	.	.	16g/
8G/	8GG\J	8B'/ 8d'/ 8f'/J	16.g/LL
.	.	.	32a/JJk
=10	=10	=10	=10
8G/	4C\	8c'/ 8e'/L	8g/
4G/	.	(16.g/ 16.ee/L	16.ee\LL
.	.	32f/ 32dd/JJk	32dd\JJk
.	4C\	8e/) 8cc/L	8cc\
8G/	.	8e'/ 8g'/J	16.e/
.	.	.	32g/
*v	*v	*	*
=11	=11	=11
*	*^	*
8GG/ 8G/	(16f/LL	8d\	16f/LL
.	16g/JJ	.	16g/JJ
*	*v	*v	*
4G\ 4B\	16.a\ (16.ff\LL)	16.ff\LL
.	32g\ 32ee\JJk	32ee\JJk
.	8f/ 8dd/L)	8dd\
8G\ 8B\	(16.g/ 16.ee/L	16.ee\LL
.	32f/ 32dd/JJk	32dd\JJk
=12	=12	=12
4C\ 4G\ 4c\	4e/) 4cc/	4cc\
8r	8r	8r
==:|!	==:|!	==:|!
*-	*-	*-
!!!ENC: Craig Stuart Sapp
!!!END: 2004/05/16/
!!!EFL: 097/651
